src/assets/svg/1-header/3-logo.svg

<svg width="138" height="58" viewBox="0 0 138 58" fill="none" xmlns="http://www.w3.org/2000/svg">
<path d="M67.3836 8.53332H67.7669V8.91663C67.7669 9.12821 67.9386 9.29995 68.1502 9.29995C68.3618 9.29995 68.5335 9.12821 68.5335 8.91663V8.53332H68.9168C69.1284 8.53332 69.3001 8.36158 69.3001 8.15C69.3001 7.93842 69.1284 7.76668 68.9168 7.76668H68.5335V7.38332C68.5335 7.17174 68.3618 7 68.1502 7C67.9386 7 67.7669 7.17174 67.7669 7.38332V7.76664H67.3836C67.172 7.76664 67.0002 7.93837 67.0002 8.14995C67.0002 8.36158 67.172 8.53332 67.3836 8.53332Z" fill="#E9E8E8"/>
<path d="M80.3836 6.53332H80.7669V6.91663C80.7669 7.12821 80.9386 7.29995 81.1502 7.29995C81.3618 7.29995 81.5335 7.12821 81.5335 6.91663V6.53332H81.9168C82.1284 6.53332 82.3001 6.36158 82.3001 6.15C82.3001 5.93842 82.1284 5.76668 81.9168 5.76668H81.5335V5.38332C81.5335 5.17174 81.3618 5 81.1502 5C80.9386 5 80.7669 5.17174 80.7669 5.38332V5.76664H80.3836C80.172 5.76664 80.0002 5.93837 80.0002 6.14995C80.0002 6.36158 80.172 6.53332 80.3836 6.53332Z" fill="#E9E8E8"/>
<g clip-path="url(#clip0_33_154)">
<path d="M70.2156 11.0666L72.0586 6.41861L77.0054 5.69064L80.1091 9.6107L78.2663 14.2587L73.3194 14.9866L70.2156 11.0666Z" fill="#E9E8E8"/>
</g>
<g clip-path="url(#clip1_33_154)">
<path d="M63.9183 16.101L65.7612 11.453L70.7081 10.7251L73.8117 14.6451L71.9689 19.2931L67.0221 20.0211L63.9183 16.101Z" fill="#E9E8E8"/>
</g>
<g clip-path="url(#clip2_33_154)">
<path d="M71.3558 19.0479L73.1987 14.3999L78.1456 13.672L81.2492 17.592L79.4064 22.24L74.4596 22.968L71.3558 19.0479Z" fill="#E9E8E8"/>
</g>
<path d="M11.556 4.181V18.086C11.556 19.634 11.079 20.876 10.125 21.812C9.171 22.73 7.911 23.189 6.345 23.189C4.761 23.189 3.492 22.721 2.538 21.785C1.584 20.831 1.107 19.535 1.107 17.897H3.564C3.582 18.815 3.816 19.562 4.266 20.138C4.734 20.714 5.427 21.002 6.345 21.002C7.263 21.002 7.947 20.732 8.397 20.192C8.847 19.634 9.072 18.932 9.072 18.086V4.181H11.556ZM40.0484 4.181L34.5944 23H31.8404L27.4664 7.853L22.9304 23L20.2034 23.027L14.9384 4.181H17.5574L21.6614 20.138L26.1974 4.181H28.9514L33.2714 20.084L37.4024 4.181H40.0484ZM48.7042 23.189C47.4622 23.189 46.3462 22.973 45.3562 22.541C44.3842 22.091 43.6192 21.479 43.0612 20.705C42.5032 19.913 42.2152 19.004 42.1972 17.978H44.8162C44.9062 18.86 45.2662 19.607 45.8962 20.219C46.5442 20.813 47.4802 21.11 48.7042 21.11C49.8742 21.11 50.7922 20.822 51.4582 20.246C52.1422 19.652 52.4842 18.896 52.4842 17.978C52.4842 17.258 52.2862 16.673 51.8902 16.223C51.4942 15.773 50.9992 15.431 50.4052 15.197C49.8112 14.963 49.0102 14.711 48.0022 14.441C46.7602 14.117 45.7612 13.793 45.0052 13.469C44.2672 13.145 43.6282 12.641 43.0882 11.957C42.5662 11.255 42.3052 10.319 42.3052 9.149C42.3052 8.123 42.5662 7.214 43.0882 6.422C43.6102 5.63 44.3392 5.018 45.2752 4.586C46.2292 4.154 47.3182 3.938 48.5422 3.938C50.3062 3.938 51.7462 4.379 52.8622 5.261C53.9962 6.143 54.6352 7.313 54.7792 8.771H52.0792C51.9892 8.051 51.6112 7.421 50.9452 6.881C50.2792 6.323 49.3972 6.044 48.2992 6.044C47.2732 6.044 46.4362 6.314 45.7882 6.854C45.1402 7.376 44.8162 8.114 44.8162 9.068C44.8162 9.752 45.0052 10.31 45.3832 10.742C45.7792 11.174 46.2562 11.507 46.8142 11.741C47.3902 11.957 48.1912 12.209 49.2172 12.497C50.4592 12.839 51.4582 13.181 52.2142 13.523C52.9702 13.847 53.6182 14.36 54.1582 15.062C54.6982 15.746 54.9682 16.682 54.9682 17.87C54.9682 18.788 54.7252 19.652 54.2392 20.462C53.7532 21.272 53.0332 21.929 52.0792 22.433C51.1252 22.937 50.0002 23.189 48.7042 23.189ZM13.662 31.181V33.179H8.532V50H6.075V33.179H0.918V31.181H13.662ZM30.1864 42.035C30.1864 42.503 30.1594 42.998 30.1054 43.52H18.2794C18.3694 44.978 18.8644 46.121 19.7644 46.949C20.6824 47.759 21.7894 48.164 23.0854 48.164C24.1474 48.164 25.0294 47.921 25.7314 47.435C26.4514 46.931 26.9554 46.265 27.2434 45.437H29.8894C29.4934 46.859 28.7014 48.02 27.5134 48.92C26.3254 49.802 24.8494 50.243 23.0854 50.243C21.6814 50.243 20.4214 49.928 19.3054 49.298C18.2074 48.668 17.3434 47.777 16.7134 46.625C16.0834 45.455 15.7684 44.105 15.7684 42.575C15.7684 41.045 16.0744 39.704 16.6864 38.552C17.2984 37.4 18.1534 36.518 19.2514 35.906C20.3674 35.276 21.6454 34.961 23.0854 34.961C24.4894 34.961 25.7314 35.267 26.8114 35.879C27.8914 36.491 28.7194 37.337 29.2954 38.417C29.8894 39.479 30.1864 40.685 30.1864 42.035ZM27.6484 41.522C27.6484 40.586 27.4414 39.785 27.0274 39.119C26.6134 38.435 26.0464 37.922 25.3264 37.58C24.6244 37.22 23.8414 37.04 22.9774 37.04C21.7354 37.04 20.6734 37.436 19.7914 38.228C18.9274 39.02 18.4324 40.118 18.3064 41.522H27.6484ZM35.8866 30.02V50H33.4296V30.02H35.8866ZM53.5741 42.035C53.5741 42.503 53.5471 42.998 53.4931 43.52H41.6671C41.7571 44.978 42.2521 46.121 43.1521 46.949C44.0701 47.759 45.1771 48.164 46.4731 48.164C47.5351 48.164 48.4171 47.921 49.1191 47.435C49.8391 46.931 50.3431 46.265 50.6311 45.437H53.2771C52.8811 46.859 52.0891 48.02 50.9011 48.92C49.7131 49.802 48.2371 50.243 46.4731 50.243C45.0691 50.243 43.8091 49.928 42.6931 49.298C41.5951 48.668 40.7311 47.777 40.1011 46.625C39.4711 45.455 39.1561 44.105 39.1561 42.575C39.1561 41.045 39.4621 39.704 40.0741 38.552C40.6861 37.4 41.5411 36.518 42.6391 35.906C43.7551 35.276 45.0331 34.961 46.4731 34.961C47.8771 34.961 49.1191 35.267 50.1991 35.879C51.2791 36.491 52.1071 37.337 52.6831 38.417C53.2771 39.479 53.5741 40.685 53.5741 42.035ZM51.0361 41.522C51.0361 40.586 50.8291 39.785 50.4151 39.119C50.0011 38.435 49.4341 37.922 48.7141 37.58C48.0121 37.22 47.2291 37.04 46.3651 37.04C45.1231 37.04 44.0611 37.436 43.1791 38.228C42.3151 39.02 41.8201 40.118 41.6941 41.522H51.0361ZM62.0553 50.243C60.9213 50.243 59.9043 50.054 59.0043 49.676C58.1043 49.28 57.3933 48.74 56.8713 48.056C56.3493 47.354 56.0613 46.553 56.0073 45.653H58.5453C58.6173 46.391 58.9593 46.994 59.5713 47.462C60.2013 47.93 61.0203 48.164 62.0283 48.164C62.9643 48.164 63.7023 47.957 64.2423 47.543C64.7823 47.129 65.0523 46.607 65.0523 45.977C65.0523 45.329 64.7643 44.852 64.1883 44.546C63.6123 44.222 62.7213 43.907 61.5153 43.601C60.4173 43.313 59.5173 43.025 58.8153 42.737C58.1313 42.431 57.5373 41.99 57.0333 41.414C56.5473 40.82 56.3043 40.046 56.3043 39.092C56.3043 38.336 56.5293 37.643 56.9793 37.013C57.4293 36.383 58.0683 35.888 58.8963 35.528C59.7243 35.15 60.6693 34.961 61.7313 34.961C63.3693 34.961 64.6923 35.375 65.7003 36.203C66.7083 37.031 67.2483 38.165 67.3203 39.605H64.8633C64.8093 38.831 64.4943 38.21 63.9183 37.742C63.3603 37.274 62.6043 37.04 61.6503 37.04C60.7683 37.04 60.0663 37.229 59.5443 37.607C59.0223 37.985 58.7613 38.48 58.7613 39.092C58.7613 39.578 58.9143 39.983 59.2203 40.307C59.5443 40.613 59.9403 40.865 60.4083 41.063C60.8943 41.243 61.5603 41.45 62.4063 41.684C63.4683 41.972 64.3323 42.26 64.9983 42.548C65.6643 42.818 66.2313 43.232 66.6993 43.79C67.1853 44.348 67.4373 45.077 67.4553 45.977C67.4553 46.787 67.2303 47.516 66.7803 48.164C66.3303 48.812 65.6913 49.325 64.8633 49.703C64.0533 50.063 63.1173 50.243 62.0553 50.243ZM70.0057 42.575C70.0057 41.045 70.3117 39.713 70.9237 38.579C71.5357 37.427 72.3817 36.536 73.4617 35.906C74.5597 35.276 75.8107 34.961 77.2147 34.961C79.0327 34.961 80.5267 35.402 81.6967 36.284C82.8847 37.166 83.6677 38.39 84.0457 39.956H81.3997C81.1477 39.056 80.6527 38.345 79.9147 37.823C79.1947 37.301 78.2947 37.04 77.2147 37.04C75.8107 37.04 74.6767 37.526 73.8127 38.498C72.9487 39.452 72.5167 40.811 72.5167 42.575C72.5167 44.357 72.9487 45.734 73.8127 46.706C74.6767 47.678 75.8107 48.164 77.2147 48.164C78.2947 48.164 79.1947 47.912 79.9147 47.408C80.6347 46.904 81.1297 46.184 81.3997 45.248H84.0457C83.6497 46.76 82.8577 47.975 81.6697 48.893C80.4817 49.793 78.9967 50.243 77.2147 50.243C75.8107 50.243 74.5597 49.928 73.4617 49.298C72.3817 48.668 71.5357 47.777 70.9237 46.625C70.3117 45.473 70.0057 44.123 70.0057 42.575ZM93.7771 50.243C92.3911 50.243 91.1311 49.928 89.9971 49.298C88.8811 48.668 87.9991 47.777 87.3511 46.625C86.7211 45.455 86.4061 44.105 86.4061 42.575C86.4061 41.063 86.7301 39.731 87.3781 38.579C88.0441 37.409 88.9441 36.518 90.0781 35.906C91.2121 35.276 92.4811 34.961 93.8851 34.961C95.2891 34.961 96.5581 35.276 97.6921 35.906C98.8261 36.518 99.7171 37.4 100.365 38.552C101.031 39.704 101.364 41.045 101.364 42.575C101.364 44.105 101.022 45.455 100.338 46.625C99.6721 47.777 98.7631 48.668 97.6111 49.298C96.4591 49.928 95.1811 50.243 93.7771 50.243ZM93.7771 48.083C94.6591 48.083 95.4871 47.876 96.2611 47.462C97.0351 47.048 97.6561 46.427 98.1241 45.599C98.6101 44.771 98.8531 43.763 98.8531 42.575C98.8531 41.387 98.6191 40.379 98.1511 39.551C97.6831 38.723 97.0711 38.111 96.3151 37.715C95.5591 37.301 94.7401 37.094 93.8581 37.094C92.9581 37.094 92.1301 37.301 91.3741 37.715C90.6361 38.111 90.0421 38.723 89.5921 39.551C89.1421 40.379 88.9171 41.387 88.9171 42.575C88.9171 43.781 89.1331 44.798 89.5651 45.626C90.0151 46.454 90.6091 47.075 91.3471 47.489C92.0851 47.885 92.8951 48.083 93.7771 48.083ZM107.052 37.931C107.538 37.085 108.258 36.383 109.212 35.825C110.184 35.249 111.309 34.961 112.587 34.961C113.901 34.961 115.089 35.276 116.151 35.906C117.231 36.536 118.077 37.427 118.689 38.579C119.301 39.713 119.607 41.036 119.607 42.548C119.607 44.042 119.301 45.374 118.689 46.544C118.077 47.714 117.231 48.623 116.151 49.271C115.089 49.919 113.901 50.243 112.587 50.243C111.327 50.243 110.211 49.964 109.239 49.406C108.285 48.83 107.556 48.119 107.052 47.273V57.02H104.595V35.204H107.052V37.931ZM117.096 42.548C117.096 41.432 116.871 40.46 116.421 39.632C115.971 38.804 115.359 38.174 114.585 37.742C113.829 37.31 112.992 37.094 112.074 37.094C111.174 37.094 110.337 37.319 109.563 37.769C108.807 38.201 108.195 38.84 107.727 39.686C107.277 40.514 107.052 41.477 107.052 42.575C107.052 43.691 107.277 44.672 107.727 45.518C108.195 46.346 108.807 46.985 109.563 47.435C110.337 47.867 111.174 48.083 112.074 48.083C112.992 48.083 113.829 47.867 114.585 47.435C115.359 46.985 115.971 46.346 116.421 45.518C116.871 44.672 117.096 43.682 117.096 42.548ZM136.341 42.035C136.341 42.503 136.314 42.998 136.26 43.52H124.434C124.524 44.978 125.019 46.121 125.919 46.949C126.837 47.759 127.944 48.164 129.24 48.164C130.302 48.164 131.184 47.921 131.886 47.435C132.606 46.931 133.11 46.265 133.398 45.437H136.044C135.648 46.859 134.856 48.02 133.668 48.92C132.48 49.802 131.004 50.243 129.24 50.243C127.836 50.243 126.576 49.928 125.46 49.298C124.362 48.668 123.498 47.777 122.868 46.625C122.238 45.455 121.923 44.105 121.923 42.575C121.923 41.045 122.229 39.704 122.841 38.552C123.453 37.4 124.308 36.518 125.406 35.906C126.522 35.276 127.8 34.961 129.24 34.961C130.644 34.961 131.886 35.267 132.966 35.879C134.046 36.491 134.874 37.337 135.45 38.417C136.044 39.479 136.341 40.685 136.341 42.035ZM133.803 41.522C133.803 40.586 133.596 39.785 133.182 39.119C132.768 38.435 132.201 37.922 131.481 37.58C130.779 37.22 129.996 37.04 129.132 37.04C127.89 37.04 126.828 37.436 125.946 38.228C125.082 39.02 124.587 40.118 124.461 41.522H133.803Z" fill="#E9E8E8"/>
<defs>
<clipPath id="clip0_33_154">
<rect width="10" height="10" fill="white" transform="translate(69.4878 6.11987) rotate(-8.37148)"/>
</clipPath>
<clipPath id="clip1_33_154">
<rect width="10" height="10" fill="white" transform="translate(63.1904 11.1543) rotate(-8.37148)"/>
</clipPath>
<clipPath id="clip2_33_154">
<rect width="10" height="10" fill="white" transform="translate(70.6279 14.1012) rotate(-8.37148)"/>
</clipPath>
</defs>
</svg>

<svg xmlns="http://www.w3.org/2000/svg" width="138" height="58" fill="none"><path fill="#E9E8E8" d="M67.384 8.533h.383v.384a.383.383 0 0 0 .767 0v-.384h.383a.383.383 0 0 0 0-.766h-.383v-.384a.383.383 0 0 0-.767 0v.384h-.383a.384.384 0 0 0 0 .766ZM80.384 6.533h.383v.384a.383.383 0 0 0 .767 0v-.384h.383a.383.383 0 0 0 0-.766h-.383v-.384a.383.383 0 0 0-.767 0v.384h-.383a.384.384 0 0 0 0 .766Z"/><g clip-path="url(#a)"><path fill="#E9E8E8" d="m70.216 11.067 1.843-4.648 4.946-.728 3.104 3.92-1.843 4.648-4.947.728-3.103-3.92Z"/></g><g clip-path="url(#b)"><path fill="#E9E8E8" d="m63.918 16.101 1.843-4.648 4.947-.728 3.104 3.92-1.843 4.648-4.947.728-3.104-3.92Z"/></g><g clip-path="url(#c)"><path fill="#E9E8E8" d="m71.356 19.048 1.843-4.648 4.947-.728 3.103 3.92-1.843 4.648-4.946.728-3.104-3.92Z"/></g><path fill="#E9E8E8" d="M11.556 4.181v13.905c0 1.548-.477 2.79-1.431 3.726-.954.918-2.214 1.377-3.78 1.377-1.584 0-2.853-.468-3.807-1.404-.954-.954-1.431-2.25-1.431-3.888h2.457c.018.918.252 1.665.702 2.241.468.576 1.161.864 2.079.864.918 0 1.602-.27 2.052-.81.45-.558.675-1.26.675-2.106V4.181h2.484Zm28.492 0L34.594 23H31.84L27.466 7.853 22.93 23l-2.727.027-5.265-18.846h2.62l4.103 15.957 4.536-15.957h2.754l4.32 15.903 4.131-15.903h2.646Zm8.656 19.008c-1.242 0-2.358-.216-3.348-.648-.972-.45-1.737-1.062-2.295-1.836-.558-.792-.846-1.701-.864-2.727h2.62a3.53 3.53 0 0 0 1.08 2.241c.647.594 1.583.891 2.807.891 1.17 0 2.088-.288 2.754-.864.684-.594 1.026-1.35 1.026-2.268 0-.72-.198-1.305-.594-1.755a3.795 3.795 0 0 0-1.485-1.026c-.594-.234-1.395-.486-2.403-.756-1.242-.324-2.24-.648-2.997-.972-.738-.324-1.377-.828-1.917-1.512-.522-.702-.783-1.638-.783-2.808 0-1.026.261-1.935.783-2.727.522-.792 1.251-1.404 2.187-1.836.954-.432 2.043-.648 3.267-.648 1.764 0 3.204.441 4.32 1.323 1.134.882 1.773 2.052 1.917 3.51h-2.7c-.09-.72-.468-1.35-1.134-1.89-.666-.558-1.548-.837-2.646-.837-1.026 0-1.863.27-2.51.81-.649.522-.973 1.26-.973 2.214 0 .684.19 1.242.567 1.674.396.432.873.765 1.431.999.576.216 1.377.468 2.403.756 1.242.342 2.241.684 2.997 1.026.756.324 1.404.837 1.944 1.539.54.684.81 1.62.81 2.808 0 .918-.243 1.782-.729 2.592s-1.206 1.467-2.16 1.971c-.954.504-2.079.756-3.375.756Zm-35.042 7.992v1.998h-5.13V50H6.075V33.179H.918v-1.998h12.744Zm16.524 10.854c0 .468-.027.963-.08 1.485H18.278c.09 1.458.585 2.601 1.485 3.429.918.81 2.025 1.215 3.321 1.215 1.062 0 1.944-.243 2.646-.729a3.977 3.977 0 0 0 1.512-1.998h2.646c-.396 1.422-1.188 2.583-2.376 3.483-1.188.882-2.664 1.323-4.428 1.323-1.404 0-2.664-.315-3.78-.945-1.098-.63-1.962-1.521-2.592-2.673-.63-1.17-.945-2.52-.945-4.05 0-1.53.306-2.871.918-4.023.612-1.152 1.467-2.034 2.565-2.646 1.116-.63 2.394-.945 3.834-.945 1.404 0 2.646.306 3.726.918a6.243 6.243 0 0 1 2.484 2.538c.594 1.062.891 2.268.891 3.618Zm-2.538-.513c0-.936-.207-1.737-.62-2.403a3.908 3.908 0 0 0-1.702-1.539c-.702-.36-1.485-.54-2.349-.54-1.242 0-2.304.396-3.186 1.188-.864.792-1.359 1.89-1.485 3.294h9.342Zm8.239-11.502V50H33.43V30.02h2.457Zm17.687 12.015c0 .468-.027.963-.08 1.485H41.666c.09 1.458.585 2.601 1.485 3.429.918.81 2.025 1.215 3.321 1.215 1.062 0 1.944-.243 2.646-.729a3.977 3.977 0 0 0 1.512-1.998h2.646c-.396 1.422-1.188 2.583-2.376 3.483-1.188.882-2.664 1.323-4.428 1.323-1.404 0-2.664-.315-3.78-.945-1.098-.63-1.962-1.521-2.592-2.673-.63-1.17-.945-2.52-.945-4.05 0-1.53.306-2.871.918-4.023.612-1.152 1.467-2.034 2.565-2.646 1.116-.63 2.394-.945 3.834-.945 1.404 0 2.646.306 3.726.918a6.243 6.243 0 0 1 2.484 2.538c.594 1.062.891 2.268.891 3.618Zm-2.538-.513c0-.936-.207-1.737-.62-2.403a3.908 3.908 0 0 0-1.702-1.539c-.702-.36-1.485-.54-2.349-.54-1.242 0-2.304.396-3.186 1.188-.864.792-1.359 1.89-1.485 3.294h9.342Zm11.02 8.721c-1.135 0-2.152-.189-3.052-.567-.9-.396-1.61-.936-2.133-1.62a4.379 4.379 0 0 1-.864-2.403h2.538c.072.738.414 1.341 1.026 1.809.63.468 1.45.702 2.457.702.936 0 1.674-.207 2.214-.621.54-.414.81-.936.81-1.566 0-.648-.288-1.125-.864-1.431-.576-.324-1.467-.639-2.673-.945-1.098-.288-1.998-.576-2.7-.864a5.127 5.127 0 0 1-1.782-1.323c-.486-.594-.729-1.368-.729-2.322 0-.756.225-1.449.675-2.079.45-.63 1.09-1.125 1.917-1.485.828-.378 1.773-.567 2.835-.567 1.638 0 2.961.414 3.97 1.242 1.007.828 1.547 1.962 1.62 3.402h-2.458c-.054-.774-.369-1.395-.945-1.863-.558-.468-1.314-.702-2.268-.702-.882 0-1.584.189-2.106.567-.522.378-.783.873-.783 1.485 0 .486.153.891.46 1.215.323.306.72.558 1.187.756.486.18 1.152.387 1.998.621 1.062.288 1.926.576 2.592.864.666.27 1.233.684 1.701 1.242.486.558.738 1.287.756 2.187 0 .81-.225 1.539-.675 2.187-.45.648-1.089 1.161-1.917 1.539-.81.36-1.746.54-2.808.54Zm7.95-7.668c0-1.53.306-2.862.918-3.996.612-1.152 1.458-2.043 2.538-2.673 1.098-.63 2.349-.945 3.753-.945 1.818 0 3.312.441 4.482 1.323 1.188.882 1.97 2.106 2.349 3.672H81.4c-.252-.9-.747-1.611-1.485-2.133-.72-.522-1.62-.783-2.7-.783-1.404 0-2.538.486-3.402 1.458-.864.954-1.296 2.313-1.296 4.077 0 1.782.432 3.159 1.296 4.131.864.972 1.998 1.458 3.402 1.458 1.08 0 1.98-.252 2.7-.756.72-.504 1.215-1.224 1.485-2.16h2.646c-.396 1.512-1.188 2.727-2.376 3.645-1.188.9-2.673 1.35-4.455 1.35-1.404 0-2.655-.315-3.753-.945-1.08-.63-1.926-1.521-2.538-2.673-.612-1.152-.918-2.502-.918-4.05Zm23.771 7.668c-1.386 0-2.646-.315-3.78-.945-1.116-.63-1.998-1.521-2.646-2.673-.63-1.17-.945-2.52-.945-4.05 0-1.512.324-2.844.972-3.996.666-1.17 1.566-2.061 2.7-2.673 1.134-.63 2.403-.945 3.807-.945s2.673.315 3.807.945a6.633 6.633 0 0 1 2.673 2.646c.666 1.152.999 2.493.999 4.023 0 1.53-.342 2.88-1.026 4.05a6.95 6.95 0 0 1-2.727 2.673c-1.152.63-2.43.945-3.834.945Zm0-2.16c.882 0 1.71-.207 2.484-.621.774-.414 1.395-1.035 1.863-1.863.486-.828.73-1.836.73-3.024s-.235-2.196-.703-3.024c-.468-.828-1.08-1.44-1.836-1.836a5.034 5.034 0 0 0-2.457-.621c-.9 0-1.728.207-2.484.621-.738.396-1.332 1.008-1.782 1.836-.45.828-.675 1.836-.675 3.024 0 1.206.216 2.223.648 3.051.45.828 1.044 1.449 1.782 1.863a5.058 5.058 0 0 0 2.43.594Zm13.275-10.152c.486-.846 1.206-1.548 2.16-2.106.972-.576 2.097-.864 3.375-.864 1.314 0 2.502.315 3.564.945 1.08.63 1.926 1.521 2.538 2.673.612 1.134.918 2.457.918 3.969 0 1.494-.306 2.826-.918 3.996-.612 1.17-1.458 2.079-2.538 2.727-1.062.648-2.25.972-3.564.972-1.26 0-2.376-.279-3.348-.837-.954-.576-1.683-1.287-2.187-2.133v9.747h-2.457V35.204h2.457v2.727Zm10.044 4.617c0-1.116-.225-2.088-.675-2.916-.45-.828-1.062-1.458-1.836-1.89a4.971 4.971 0 0 0-2.511-.648c-.9 0-1.737.225-2.511.675-.756.432-1.368 1.071-1.836 1.917-.45.828-.675 1.791-.675 2.889 0 1.116.225 2.097.675 2.943.468.828 1.08 1.467 1.836 1.917a5.068 5.068 0 0 0 2.511.648c.918 0 1.755-.216 2.511-.648.774-.45 1.386-1.089 1.836-1.917.45-.846.675-1.836.675-2.97Zm19.245-.513c0 .468-.027.963-.081 1.485h-11.826c.09 1.458.585 2.601 1.485 3.429.918.81 2.025 1.215 3.321 1.215 1.062 0 1.944-.243 2.646-.729a3.977 3.977 0 0 0 1.512-1.998h2.646c-.396 1.422-1.188 2.583-2.376 3.483-1.188.882-2.664 1.323-4.428 1.323-1.404 0-2.664-.315-3.78-.945-1.098-.63-1.962-1.521-2.592-2.673-.63-1.17-.945-2.52-.945-4.05 0-1.53.306-2.871.918-4.023.612-1.152 1.467-2.034 2.565-2.646 1.116-.63 2.394-.945 3.834-.945 1.404 0 2.646.306 3.726.918a6.243 6.243 0 0 1 2.484 2.538c.594 1.062.891 2.268.891 3.618Zm-2.538-.513c0-.936-.207-1.737-.621-2.403a3.908 3.908 0 0 0-1.701-1.539c-.702-.36-1.485-.54-2.349-.54-1.242 0-2.304.396-3.186 1.188-.864.792-1.359 1.89-1.485 3.294h9.342Z"/><defs><clipPath id="a"><path fill="#fff" d="m69.488 6.12 9.893-1.456 1.456 9.893-9.893 1.456z"/></clipPath><clipPath id="b"><path fill="#fff" d="m63.19 11.154 9.894-1.456 1.456 9.894-9.894 1.456z"/></clipPath><clipPath id="c"><path fill="#fff" d="m70.628 14.101 9.893-1.456 1.456 9.894-9.893 1.456z"/></clipPath></defs></svg>
